X: 1650
T: Killongbutta
B: australian traditional tunes wiki
B: kameruka bush dance
B: to learn
M:3/4
L:1/8
R: Varsovienne
Q: 1/4=100
K:G
V:1 
D2|:"G"G>A B2 G2|"Am"E4 A2|"D7"DE FG AB|"C"c4 c2|
e>e e2 c2|"Am"A2A2 G2|FA e2 d2||1 "G"B4D2:|2 "G"G4 DG||
|:"G"B>A B2 DG|"G"B>A B2 DG|"G"B>A B2 c2|"D7"A4 AB|"D7"c>B c>B AB|
|1 "D7"c>B c>B AB| c>B c2 c2|"G"B4DG:|2"D7"c>Bc2d2|e2 d2 AB|"G"G6||
% abcbook-tune_id 6342d53adb5f32b0fb2b89c8


% abcbook-boost 0
% abcbook-tablature 
% abcbook-transpose 
% abcbook-lastupdated 1666009761202
% abcbook-soundfonts 
% abcbook-repeats 3
% NFF Book 2008

